build/Karasa-Jaga/scalable/apps/unity-tweak-tool-system-symbolic.svg

<svg height="16" width="16" xmlns="http://www.w3.org/2000/svg"><g fill="#666" transform="translate(0 -48)"><path d="m2 51h9v2h-9z"/><path d="m5 59h9v2h-9z"/><path d="m2 7v2h5v-2zm7 0v2h5v-2z" transform="translate(0 48)"/><path d="m12 50c-1.104569 0-2 .895431-2 2s.895431 2 2 2 2-.895431 2-2-.895431-2-2-2zm0 1c.552285 0 1 .447715 1 1s-.447715 1-1 1-1-.447715-1-1 .447715-1 1-1z"/><path d="m4 58c-1.1045695 0-2 .895431-2 2s.8954305 2 2 2 2-.895431 2-2-.8954305-2-2-2zm0 1c.5522847 0 1 .447715 1 1s-.4477153 1-1 1-1-.447715-1-1 .4477153-1 1-1z"/><path d="m8 6c-1.1045695 0-2 .8954305-2 2s.8954305 2 2 2 2-.8954305 2-2-.8954305-2-2-2zm0 1c.5522847 0 1 .4477153 1 1s-.4477153 1-1 1-1-.4477153-1-1 .4477153-1 1-1z" transform="translate(0 48)"/></g></svg>

<?xml version="1.0" encoding="UTF-8" standalone="no"?>
<!-- Created with Inkscape (http://www.inkscape.org/) -->

<svg
   xmlns:dc="http://purl.org/dc/elements/1.1/"
   xmlns:cc="http://creativecommons.org/ns#"
   xmlns:rdf="http://www.w3.org/1999/02/22-rdf-syntax-ns#"
   xmlns:svg="http://www.w3.org/2000/svg"
   xmlns="http://www.w3.org/2000/svg"
   xmlns:sodipodi="http://sodipodi.sourceforge.net/DTD/sodipodi-0.dtd"
   xmlns:inkscape="http://www.inkscape.org/namespaces/inkscape"
   width="16"
   height="16"
   id="svg2985"
   version="1.1"
   inkscape:version="0.48.4 r9939"
   sodipodi:docname="unity-tweak-tool-system-symbolic.svg">
  <defs
     id="defs2987" />
  <sodipodi:namedview
     id="base"
     pagecolor="#ffffff"
     bordercolor="#666666"
     borderopacity="1.0"
     inkscape:pageopacity="0"
     inkscape:pageshadow="2"
     inkscape:zoom="4"
     inkscape:cx="9.0172802"
     inkscape:cy="15.593995"
     inkscape:current-layer="layer1"
     showgrid="false"
     inkscape:document-units="px"
     inkscape:grid-bbox="true"
     inkscape:window-width="1366"
     inkscape:window-height="711"
     inkscape:window-x="0"
     inkscape:window-y="27"
     inkscape:window-maximized="1"
     inkscape:snap-bbox="true">
    <inkscape:grid
       type="xygrid"
       id="grid2982"
       empspacing="5"
       visible="true"
       enabled="true"
       snapvisiblegridlinesonly="true" />
  </sodipodi:namedview>
  <metadata
     id="metadata2990">
    <rdf:RDF>
      <cc:Work
         rdf:about="">
        <dc:format>image/svg+xml</dc:format>
        <dc:type
           rdf:resource="http://purl.org/dc/dcmitype/StillImage" />
        <dc:title />
      </cc:Work>
    </rdf:RDF>
  </metadata>
  <g
     id="layer1"
     inkscape:label="Layer 1"
     inkscape:groupmode="layer"
     transform="translate(0,-48)">
    <rect
       style="color:#000000;fill:#666666;fill-opacity:1;fill-rule:nonzero;stroke:none;stroke-width:7;marker:none;visibility:visible;display:inline;overflow:visible;enable-background:new"
       id="rect3768"
       width="9"
       height="2"
       x="2"
       y="51"
       ry="0" />
    <rect
       style="color:#000000;fill:#666666;fill-opacity:1;fill-rule:nonzero;stroke:none;stroke-width:7;marker:none;visibility:visible;display:inline;overflow:visible;enable-background:new"
       id="rect3770"
       width="9"
       height="2"
       x="5"
       y="59"
       ry="0" />
    <path
       style="color:#000000;fill:#666666;fill-opacity:1;fill-rule:nonzero;stroke:none;stroke-width:7;marker:none;visibility:visible;display:inline;overflow:visible;enable-background:new"
       d="M 2 7 L 2 9 L 7 9 L 7 7 L 2 7 z M 9 7 L 9 9 L 14 9 L 14 7 L 9 7 z "
       transform="translate(0,48)"
       id="rect3772" />
    <path
       style="color:#000000;fill:#666666;fill-opacity:1;fill-rule:nonzero;stroke:none;stroke-width:7;marker:none;visibility:visible;display:inline;overflow:visible;enable-background:new"
       d="m 12,50 c -1.104569,0 -2,0.895431 -2,2 0,1.104569 0.895431,2 2,2 1.104569,0 2,-0.895431 2,-2 0,-1.104569 -0.895431,-2 -2,-2 z m 0,1 c 0.552285,0 1,0.447715 1,1 0,0.552285 -0.447715,1 -1,1 -0.552285,0 -1,-0.447715 -1,-1 0,-0.552285 0.447715,-1 1,-1 z"
       id="path3774"
       inkscape:connector-curvature="0" />
    <path
       style="color:#000000;fill:#666666;fill-opacity:1;fill-rule:nonzero;stroke:none;stroke-width:7;marker:none;visibility:visible;display:inline;overflow:visible;enable-background:new"
       d="m 4,58 c -1.1045695,0 -2,0.895431 -2,2 0,1.104569 0.8954305,2 2,2 1.1045695,0 2,-0.895431 2,-2 0,-1.104569 -0.8954305,-2 -2,-2 z m 0,1 c 0.5522847,0 1,0.447715 1,1 0,0.552285 -0.4477153,1 -1,1 -0.5522847,0 -1,-0.447715 -1,-1 0,-0.552285 0.4477153,-1 1,-1 z"
       id="path3776"
       inkscape:connector-curvature="0" />
    <path
       style="color:#000000;fill:#666666;fill-opacity:1;fill-rule:nonzero;stroke:none;stroke-width:7;marker:none;visibility:visible;display:inline;overflow:visible;enable-background:new"
       d="M 8 6 C 6.8954305 6 6 6.8954305 6 8 C 6 9.1045695 6.8954305 10 8 10 C 9.1045695 10 10 9.1045695 10 8 C 10 6.8954305 9.1045695 6 8 6 z M 8 7 C 8.5522847 7 9 7.4477153 9 8 C 9 8.5522847 8.5522847 9 8 9 C 7.4477153 9 7 8.5522847 7 8 C 7 7.4477153 7.4477153 7 8 7 z "
       transform="translate(0,48)"
       id="path3778" />
  </g>
</svg>
